X:1
T:The Old Maid (53)
M:4/4
L:1/8
K:C
 C2| c2 cc c2 z G| GAG-F E2 GG| c2 B3/2 A/2 G2 ^F3/2 F/2| G2 z4| GF|\
F-E DC G2 G2| A2 dcc-BA-G| AB cd e2 d2| c2 z4||
